X: 12906
T: Fi's Frolics
R: jig
M: 6/8
K: Amajor
|:Acd ecA|cea gea|ged c/d/ec|B2 B AFE|
Acd ecA|cea gea|ged cec|1 BAG AeA:|2 BAG A2 E||
Fce cBA|DEF Adc|A/B/cd eag|ecd ecA|
Fce cBA|DEF Adc|Acd ecA|B2 B AFE|
Fce cBA|DEF Adc|A/B/cd eag|ecd ecA|
Fce cBA|DEF Adc|Acd ecA|Bce AFE||

